assets/img/braze_icons/receipt.svg

<svg fill="none" height="24" viewBox="0 0 24 24" width="24" xmlns="http://www.w3.org/2000/svg"><path d="m15.2413 2h-6.4826c-.80496-.00001-1.46933-.00002-2.01052.04419-.5621.04593-1.07881.14449-1.56414.39179-.75265.38349-1.36457.99541-1.74806 1.74806-.2473.48533-.34586 1.00204-.39179 1.56414-.04421.54119-.0442 1.20554-.04419 2.01051v13.24131c0 .3761.21105.7204.54622.8911s.73777.1389 1.04195-.0824l2.13294-1.5512 1.9042 1.5234c.35184.2814.84847.2929 1.21286.0278l2.16183-1.5722 2.1618 1.5722c.3644.2651.8611.2536 1.2129-.0278l1.9042-1.5234 2.1329 1.5512c.3042.2213.7068.2531 1.042.0824.3351-.1707.5462-.515.5462-.8911v-13.24132c0-.80496 0-1.46931-.0442-2.0105-.0459-.5621-.1445-1.07881-.3918-1.56414-.3835-.75265-.9954-1.36457-1.748-1.74806-.4854-.2473-1.0021-.34586-1.5642-.39179-.5412-.04421-1.2055-.0442-2.0105-.04419z" fill="#801ed7"/></svg>

<svg width="24" height="24" viewBox="0 0 24 24" fill="none" xmlns="http://www.w3.org/2000/svg">
<path d="M15.2413 2H8.7587C7.95374 1.99999 7.28937 1.99998 6.74818 2.04419C6.18608 2.09012 5.66937 2.18868 5.18404 2.43598C4.43139 2.81947 3.81947 3.43139 3.43598 4.18404C3.18868 4.66937 3.09012 5.18608 3.04419 5.74818C2.99998 6.28937 2.99999 6.95372 3 7.75869V21C3 21.3761 3.21105 21.7204 3.54622 21.8911C3.88139 22.0618 4.28399 22.03 4.58817 21.8087L6.72111 20.2575L8.62531 21.7809C8.97715 22.0623 9.47378 22.0738 9.83817 21.8087L12 20.2365L14.1618 21.8087C14.5262 22.0738 15.0229 22.0623 15.3747 21.7809L17.2789 20.2575L19.4118 21.8087C19.716 22.03 20.1186 22.0618 20.4538 21.8911C20.7889 21.7204 21 21.3761 21 21V7.75868C21 6.95372 21 6.28937 20.9558 5.74818C20.9099 5.18608 20.8113 4.66937 20.564 4.18404C20.1805 3.43139 19.5686 2.81947 18.816 2.43598C18.3306 2.18868 17.8139 2.09012 17.2518 2.04419C16.7106 1.99998 16.0463 1.99999 15.2413 2Z" fill="#801ED7"/>
</svg>
